assets/img/braze_icons/strikethrough-01.svg

<svg fill="none" height="24" viewBox="0 0 24 24" width="24" xmlns="http://www.w3.org/2000/svg"><g fill="#801ed7"><path d="m5 8c0-2.76142 2.23858-5 5-5h4c2.7614 0 5 2.23858 5 5 0 .55228-.4477 1-1 1s-1-.44772-1-1c0-1.65685-1.3431-3-3-3h-4c-1.65685 0-3 1.34315-3 3 0 .55228-.44772 1-1 1s-1-.44772-1-1z"/><path d="m18.0004 13h2.9996c.5523 0 1-.4477 1-1s-.4477-1-1-1h-18c-.55228 0-1 .4477-1 1s.44772 1 1 1h11c1.6569 0 3 1.3431 3 3s-1.3431 3-3 3h-4c-1.65685 0-3-1.3431-3-3 0-.5523-.44772-1-1-1s-1 .4477-1 1c0 2.7614 2.23858 5 5 5h4c2.7614 0 5-2.2386 5-5 0-1.1256-.3719-2.1643-.9996-3z"/></g></svg>

<svg width="24" height="24" viewBox="0 0 24 24" fill="none" xmlns="http://www.w3.org/2000/svg">
<path d="M5 8C5 5.23858 7.23858 3 10 3H14C16.7614 3 19 5.23858 19 8C19 8.55228 18.5523 9 18 9C17.4477 9 17 8.55228 17 8C17 6.34315 15.6569 5 14 5H10C8.34315 5 7 6.34315 7 8C7 8.55228 6.55228 9 6 9C5.44772 9 5 8.55228 5 8Z" fill="#801ED7"/>
<path d="M18.0004 13H21C21.5523 13 22 12.5523 22 12C22 11.4477 21.5523 11 21 11H3C2.44772 11 2 11.4477 2 12C2 12.5523 2.44772 13 3 13H14C15.6569 13 17 14.3431 17 16C17 17.6569 15.6569 19 14 19H10C8.34315 19 7 17.6569 7 16C7 15.4477 6.55228 15 6 15C5.44772 15 5 15.4477 5 16C5 18.7614 7.23858 21 10 21H14C16.7614 21 19 18.7614 19 16C19 14.8744 18.6281 13.8357 18.0004 13Z" fill="#801ED7"/>
</svg>
